X: 2
M: 2/4
L: 1/16
K: A
e>c |:\
"A"A>AA>B "C#/A7"c<ec>A | "D"d>Ad>f "E7"e2e>c |\
"A"A>AA>B "F#m"c<e d>c | "Bm"B4 "E7"B2e>c |
"A"A>AA>B "C#/A7"c<ec>A | "D"d>Ad>f "E7"e2e>c |\
"F#m"A>AA>B "Bm"c<e"G#/E7"d>B |1 "A"A4 A2"E7"e>c :|2 "A"A4 A2"E7"e2 ||
|:\
"A"a>ee>a | "C#/A7"=g>ee>g | "D"f>dd>f "E7"e2e>c |\
"F#m"A>AA>B "C#m"c<ed>c | "Bm"B4 "E7"B2e2 |
"A"a>ee>a | "G/A7"=g>ee>g | "D"f>dd>f "E7"e2e>c |\
"F#m"A>AA>B "Bm"c<e"G#/E7"d>B |1 "A"A4 "E7"A2e2 :|2 "A"A4 "E7"A2e>c ||
|:\
"A"A>GA>B "C#/A7"c<ec>A | "D"d>FA>d "E7"c2c>B |\
"A"A>GA>B "F#m"c<ed>c | "Bm"B4 B2"E7"e>c |
"A"A>GA>B "C#/A7"c<ec>A | "D"d>FA>d "E7"c2c>B |\
"F#m"A>AA>B "Bm"c<e"G#/E7"d>c |1 "A"A4 "E7"A2e>c :|2 "A"A4 "E7"A2e2 ||
|:\
"A"a>AA>a "G"=g4 | "F#m"f>AA>f "E"e4 |\
"F#m"f>ec>A "C#m"c<ed>c | "Bm"B4 "E7"B2e2 |
[1 "A"a>AA>a "G"=g4 | "F#m"f>AA>f "E7"e4 |\
"F#m"f>ec>A "Bm"B<d "G#/E7"c>B | "A"A4 "E7"A2e2 :|
[2 "A"A>GA>B "C#/A7"c<ec>A | "D"d>FA>d "E7"c2c>B |\
"F#m"A>AA>B "Bm"c<e"G#/E7"d>c | "A"A4 A4 |]
Lothians and this tune was written when hosts, Alison & Bobby Colgan, decided to move on from
the Chase and start in a new venture in Musselburgh.


